X: 1
T: O'Connell's Farewell To Dublin
M: 12/8
L: 1/8
R: slide
K: Ador
A2B|c2B c2B c2d e2f|gfe agf gfe dBA|
G2B d2d edB dBA|G2B dBd edB d2B|
c2B c2B c2d e2f|gfe agf gfe d2B|
A2a a2f g2e d2B|c2c ~B3 A3:|
A2B|cec A2B cec Adc|B/c/dB Gdc BdB GdB|
cec A2B c2d e2f|gfe agf gfe d2B|
cec A2B cec Adc|B/c/dB Gdc BdB G2B|
A2a a2f g2e d2B|c2c ~B3 A3||
